src/components/calendar/svg/svg-min/logo_meditation.svg

<svg xmlns="http://www.w3.org/2000/svg" viewBox="0 0 23.75 23.75" height="23.75" width="23.75">
    <defs id="defs6">
        <clipPath id="clipPath12" clipPathUnits="userSpaceOnUse">
            <path id="path14" d="m 0,0 14400,0 0,14400 L 0,14400 0,0 Z" />
        </clipPath>
        <clipPath id="clipPath20" clipPathUnits="userSpaceOnUse">
            <path id="path22" d="m 0,14400 14400,0 L 14400,0 0,0 0,14400 Z" />
        </clipPath>
    </defs>
    <g id="g24" transform="matrix(1.25,0,0,-1.25,11.146375,0.733125)">
        <path inkscape:connector-curvature="0" d="M 0,0 C 2.522,0.779 2.593,-3.69 0.441,-3.678 -1.413,-3.667 -1.691,-0.522 0,0" id="path26" />
    </g>
    <g id="g28" transform="matrix(1.25,0,0,-1.25,9.903125,12.984625)" />
    <g id="g4239">
        <g transform="matrix(1.25,0,0,-1.25,12.589875,18.477875)" id="g32">
            <path style="fill:#000000;fill-opacity:1;fill-rule:nonzero;stroke:none" d="M 12.507812 6.3984375 C 10.916562 6.3921875 9.1776563 6.8271094 8.0195312 7.5371094 C 6.9395312 10.443359 7.53625 13.410313 5.8125 15.445312 C 4.1875 17.365312 -0.31492188 16.630469 0.11132812 20.042969 C 1.2638281 19.464219 1.3226563 18.490781 2.5039062 18.019531 C 3.8001563 17.503281 5.4588281 17.834609 6.5488281 17.099609 C 8.5138281 15.774609 7.7955469 12.365859 9.6230469 10.755859 L 9.7011719 11.384766 C 9.6888688 11.43142 9.6774801 11.485235 9.6816406 11.576172 C 9.7416406 11.939922 9.6875 12.302187 9.6875 12.648438 C 9.68375 14.823437 8.6275781 16.616016 7.9550781 18.041016 L 7.8789062 18.201172 L 7.703125 18.222656 C 4.881875 18.531406 2.0569531 18.713281 1.3144531 20.675781 C 2.2269531 22.514531 3.2839844 23.048203 4.5839844 23.064453 C 7.4702344 23.099453 11.501641 19.959297 15.619141 19.935547 C 15.721641 19.935547 15.825938 19.937656 15.929688 19.941406 C 15.684688 19.755156 15.341484 19.629375 14.927734 19.515625 C 14.245234 19.320625 13.441563 19.202578 12.851562 18.705078 L 12.589844 18.478516 L 12.833984 18.236328 C 13.577734 17.541328 14.754844 17.549922 15.621094 17.326172 C 15.067344 15.964922 13.745312 14.367812 13.726562 12.539062 C 13.725402 12.112137 13.814963 11.67395 13.994141 11.236328 C 14.069287 11.043885 14.151618 10.845413 14.240234 10.636719 C 15.970234 12.666719 15.27875 15.401719 17.03125 16.917969 C 18.2725 17.991719 20.28625 17.334375 21.8125 18.203125 C 22.5675 18.633125 22.692344 19.982422 23.652344 19.857422 C 23.876094 16.486172 19.447578 17.441328 17.767578 14.892578 C 17.007578 13.737578 16.501172 11.471484 16.294922 9.9277344 C 16.217422 9.3314844 16.442031 8.515 16.113281 7.90625 C 15.542656 6.8525 14.099063 6.4046875 12.507812 6.3984375 z " transform="matrix(0.8,0,0,-0.8,-10.0719,14.7823)" id="path34" />
        </g>
    </g>
    <g id="g36" transform="matrix(1.25,0,0,-1.25,21.12625,22.681875)">
        <path inkscape:connector-curvature="0" d="m 0,0 c 0.67,0.422 0.887,0.827 0.888,1.189 0.011,0.503 -0.479,1.105 -1.289,1.559 -0.803,0.454 -1.883,0.756 -2.912,0.754 -0.315,0 -0.625,-0.027 -0.921,-0.087 0.797,-0.277 1.382,-0.849 1.5,-1.812 L -2.697,1.317 -2.984,1.313 C -4.42,1.298 -5.962,1.216 -7.185,0.814 -5.143,0.798 -3.013,-0.362 -1.356,-0.35 -0.854,-0.349 -0.404,-0.25 0,0" id="path38" />
    </g>
</svg>

<svg xmlns="http://www.w3.org/2000/svg" viewBox="0 0 23.75 23.75" height="23.75" width="23.75">
    <path d="M11.146.733c3.153-.974 3.242 4.613.552 4.598-2.318-.013-2.665-3.944-.552-4.597" fill-rule="evenodd" />
    <path d="M12.508 6.398c-1.59-.006-3.33.43-4.488 1.14-1.08 2.905-.484 5.872-2.207 7.907C4.188 17.365-.316 16.63.11 20.043c1.154-.58 1.213-1.552 2.394-2.023 1.296-.517 2.955-.185 4.045-.92 1.964-1.325 1.246-4.734 3.073-6.344l.078.63a.58.58 0 0 0-.018.19c.06.364.005.726.005 1.072-.003 2.175-1.06 3.968-1.732 5.393l-.076.16-.177.023c-2.82.308-5.646.49-6.39 2.453.914 1.84 1.97 2.372 3.27 2.388 2.887.035 6.92-3.105 11.036-3.128.102 0 .206.002.31.005-.245-.185-.59-.31-1.002-.424-.683-.195-1.486-.313-2.076-.81l-.262-.227.244-.244c.744-.695 1.92-.686 2.787-.91-.553-1.36-1.875-2.958-1.893-4.787-.002-.428.088-.866.267-1.304.075-.192.158-.39.246-.6 1.73 2.03 1.04 4.766 2.79 6.282 1.242 1.074 3.256.416 4.782 1.285.755.43.88 1.78 1.84 1.654.224-3.37-4.204-2.416-5.884-4.964-.76-1.155-1.267-3.422-1.473-4.965-.078-.597.147-1.413-.182-2.022-.57-1.053-2.014-1.5-3.605-1.508z" />
    <path d="M21.126 22.682c.838-.528 1.11-1.034 1.11-1.486.014-.63-.6-1.382-1.61-1.95-1.005-.567-2.355-.944-3.64-.942-.395 0-.782.034-1.152.11.996.345 1.727 1.06 1.875 2.264l.045.358-.36.005c-1.794.02-3.72.122-5.25.624 2.552.02 5.215 1.47 7.286 1.455.63-.002 1.19-.126 1.696-.438" />
</svg>
